;FLAVOR:Marlin
;TIME:740
;Filament used: 0.244177m
;Layer height: 0.2
;MINX:95.55
;MINY:97.7
;MINZ:0.2
;MAXX:124.45
;MAXY:122.287
;MAXZ:10
;Generated with Creality Slicer 4.8.2-205
M140 S60
M105
M190 S60
M104 S200
M105
M109 S200
M82 ;absolute extrusion mode

G28 ;Home

G92 E0 ;Reset Extruder
G1 Z2.0 F3000 ;Move Z Axis up
G1 X10.1 Y20 Z0.28 F5000.0 ;Move to start position
G1 X10.1 Y200.0 Z0.28 F1500.0 E15 ;Draw the first line
G1 X10.4 Y200.0 Z0.28 F5000.0 ;Move to side a little
G1 X10.4 Y20 Z0.28 F1500.0 E30 ;Draw the second line
G92 E0 ;Reset Extruder
G1 Z2.0 F3000 ;Move Z Axis up

G92 E0
G92 E0
G1 F3600 E-5
;LAYER_COUNT:50
;LAYER:0
M107
G0 F6000 X97.952 Y99.985 Z0.2
;TYPE:SKIRT
G1 F3600 E0
G1 F1200 X98.538 Y99.455 E0.02628
G1 X99.174 Y98.988 E0.05252
G1 X99.854 Y98.587 E0.07878
G1 X100.572 Y98.257 E0.10506
G1 X101.319 Y98.002 E0.13132
G1 X102.088 Y97.823 E0.15758
G1 X102.872 Y97.723 E0.18386
G1 X103.467 Y97.7 E0.20367
G1 X116.533 Y97.7 E0.63824
G1 X117.322 Y97.74 E0.66452
G1 X118.102 Y97.859 E0.69076
G1 X118.867 Y98.057 E0.71705
G1 X119.607 Y98.331 E0.74329
G1 X120.316 Y98.679 E0.76956
G1 X120.987 Y99.097 E0.79585
G1 X121.611 Y99.58 E0.8221
G1 X122.048 Y99.985 E0.84192
G1 X122.165 Y100.102 E0.84742
G1 X122.695 Y100.688 E0.8737
G1 X123.162 Y101.324 E0.89994
G1 X123.563 Y102.004 E0.9262
G1 X123.893 Y102.722 E0.95248
G1 X124.148 Y103.469 E0.97873
G1 X124.327 Y104.238 E1.005
G1 X124.427 Y105.022 E1.03128
G1 X124.45 Y105.617 E1.05109
G1 X124.45 Y110.497 E1.2134
G1 X124.437 Y110.953 E1.22857
G1 X124.41 Y111.414 E1.24393
G1 X124.316 Y112.246 E1.27178
G1 X124.243 Y112.682 E1.28648
G1 X124.043 Y113.562 E1.3165
G1 X123.92 Y113.987 E1.33121
G1 X123.629 Y114.815 E1.3604
G1 X123.453 Y115.238 E1.37564
G1 X123.063 Y116.042 E1.40536
G1 X122.846 Y116.431 E1.42018
G1 X122.402 Y117.135 E1.44786
G1 X122.141 Y117.504 E1.46289
G1 X121.57 Y118.219 E1.49333
G1 X121.272 Y118.55 E1.50814
G1 X120.668 Y119.151 E1.53648
G1 X120.334 Y119.449 E1.55137
G1 X119.637 Y120.003 E1.58098
G1 X119.267 Y120.264 E1.59604
G1 X118.559 Y120.708 E1.62384
G1 X118.172 Y120.923 E1.63856
G1 X117.374 Y121.309 E1.66804
G1 X116.95 Y121.485 E1.68331
G1 X116.084 Y121.786 E1.71381
G1 X115.66 Y121.906 E1.72846
G1 X114.815 Y122.095 E1.75726
G1 X114.376 Y122.168 E1.77206
G1 X113.527 Y122.262 E1.80047
G1 X113.074 Y122.287 E1.81556
G1 X112.196 Y122.286 E1.84477
G1 X111.744 Y122.26 E1.85983
G1 X110.895 Y122.164 E1.88824
G1 X110.456 Y122.09 E1.90305
G1 X109.58 Y121.89 E1.93294
G1 X109.156 Y121.767 E1.94762
G1 X108.762 Y121.629 E1.9615
G1 X107.993 Y121.738 E1.98734
G1 X107.602 Y121.771 E2.00039
G1 X106.695 Y121.795 E2.03057
G1 X106.292 Y121.782 E2.04398
G1 X105.424 Y121.705 E2.07296
G1 X105.024 Y121.647 E2.0864
G1 X104.111 Y121.459 E2.11741
G1 X103.733 Y121.357 E2.13043
G1 X102.935 Y121.095 E2.15836
G1 X102.56 Y120.949 E2.17175
G1 X101.738 Y120.572 E2.20183
G1 X101.387 Y120.386 E2.21504
G1 X100.632 Y119.93 E2.24437
G1 X100.299 Y119.702 E2.2578
G1 X99.592 Y119.155 E2.28753
G1 X99.288 Y118.891 E2.30092
G1 X98.641 Y118.26 E2.33098
G1 X98.38 Y117.974 E2.34386
G1 X97.821 Y117.287 E2.37332
G1 X97.578 Y116.951 E2.38711
G1 X97.101 Y116.207 E2.4165
G1 X96.909 Y115.866 E2.42952
G1 X96.518 Y115.067 E2.4591
G1 X96.363 Y114.699 E2.47239
G1 X96.057 Y113.834 E2.5029
G1 X95.945 Y113.446 E2.51633
G1 X95.747 Y112.575 E2.54604
G1 X95.682 Y112.188 E2.5591
G1 X95.588 Y111.365 E2.58665
G1 X95.564 Y110.967 E2.59991
G1 X95.55 Y110.498 E2.61551
G1 X95.55 Y105.617 E2.77786
G1 X95.59 Y104.828 E2.80413
G1 X95.709 Y104.048 E2.83038
G1 X95.907 Y103.283 E2.85666
G1 X96.181 Y102.543 E2.8829
G1 X96.529 Y101.834 E2.90917
G1 X96.947 Y101.163 E2.93547
G1 X97.43 Y100.539 E2.96171
G1 X97.835 Y100.102 E2.98153
G1 X97.952 Y99.985 E2.98703
G0 F6000 X98.234 Y100.267
G1 F1200 X98.806 Y99.753 E3.01261
G1 X99.428 Y99.3 E3.0382
G1 X100.093 Y98.914 E3.06378
G1 X100.795 Y98.599 E3.08937
G1 X101.526 Y98.359 E3.11496
G1 X102.277 Y98.196 E3.14052
G1 X103.042 Y98.112 E3.16611
G1 X103.467 Y98.1 E3.18026
G1 X116.533 Y98.1 E3.61483
G1 X117.301 Y98.14 E3.64041
G1 X118.061 Y98.259 E3.666
G1 X118.804 Y98.457 E3.69157
G1 X119.523 Y98.731 E3.71716
G1 X120.209 Y99.078 E3.74273
G1 X120.856 Y99.494 E3.76832
G1 X121.456 Y99.975 E3.79389
G1 X121.766 Y100.267 E3.80806
G1 X121.883 Y100.384 E3.81356
G1 X122.397 Y100.956 E3.83914
G1 X122.85 Y101.578 E3.86473
G1 X123.236 Y102.243 E3.8903
G1 X123.551 Y102.945 E3.9159
G1 X123.791 Y103.676 E3.94149
G1 X123.954 Y104.427 E3.96705
G1 X124.038 Y105.192 E3.99264
G1 X124.05 Y105.617 E4.00678
G1 X124.05 Y110.497 E4.16909
G1 X124.037 Y110.93 E4.1835
G1 X124.01 Y111.391 E4.19886
G1 X123.921 Y112.18 E4.22527
G1 X123.848 Y112.616 E4.23997
G1 X123.658 Y113.451 E4.26846
G1 X123.535 Y113.876 E4.28317
G1 X123.259 Y114.662 E4.31088
G1 X123.083 Y115.085 E4.32612
G1 X122.713 Y115.847 E4.35429
G1 X122.496 Y116.236 E4.36911
G1 X122.075 Y116.904 E4.39537
G1 X121.814 Y117.273 E4.4104
G1 X121.273 Y117.951 E4.43925
G1 X120.975 Y118.282 E4.45406
G1 X120.402 Y118.853 E4.48097
G1 X120.068 Y119.151 E4.49586
G1 X119.407 Y119.676 E4.52393
G1 X119.037 Y119.937 E4.53899
G1 X118.365 Y120.359 E4.56538
G1 X117.978 Y120.574 E4.58011
G1 X117.221 Y120.94 E4.60808
G1 X116.797 Y121.116 E4.62334
G1 X115.975 Y121.401 E4.65228
G1 X115.551 Y121.521 E4.66694
G1 X114.75 Y121.701 E4.69424
G1 X114.311 Y121.774 E4.70904
G1 X113.505 Y121.863 E4.73602
G1 X113.052 Y121.888 E4.7511
G1 X112.219 Y121.887 E4.77881
G1 X111.767 Y121.861 E4.79387
G1 X110.962 Y121.77 E4.82081
G1 X110.523 Y121.696 E4.83562
G1 X109.691 Y121.506 E4.86401
G1 X109.267 Y121.383 E4.87869
G1 X108.803 Y121.219 E4.89506
G1 X107.959 Y121.34 E4.92342
G1 X107.568 Y121.373 E4.93647
G1 X106.707 Y121.395 E4.96511
G1 X106.304 Y121.382 E4.97852
G1 X105.481 Y121.309 E5.00601
G1 X105.081 Y121.251 E5.01945
G1 X104.215 Y121.072 E5.04886
G1 X103.837 Y120.97 E5.06188
G1 X103.08 Y120.722 E5.08838
G1 X102.705 Y120.576 E5.10176
G1 X101.925 Y120.219 E5.13029
G1 X101.574 Y120.033 E5.1435
G1 X100.858 Y119.6 E5.17134
G1 X100.525 Y119.372 E5.18476
G1 X99.854 Y118.853 E5.21297
G1 X99.55 Y118.589 E5.22636
G1 X98.936 Y117.99 E5.25489
G1 X98.675 Y117.704 E5.26777
G1 X98.145 Y117.053 E5.29569
G1 X97.902 Y116.717 E5.30948
G1 X97.45 Y116.011 E5.33737
G1 X97.258 Y115.67 E5.35038
G1 X96.886 Y114.911 E5.3785
G1 X96.731 Y114.543 E5.39178
G1 X96.441 Y113.723 E5.42071
G1 X96.329 Y113.335 E5.43414
G1 X96.141 Y112.509 E5.46231
G1 X96.076 Y112.122 E5.47537
G1 X95.987 Y111.341 E5.50151
G1 X95.963 Y110.943 E5.51477
G1 X95.95 Y110.498 E5.52958
G1 X95.95 Y105.617 E5.69192
G1 X95.99 Y104.849 E5.7175
G1 X96.109 Y104.089 E5.74308
G1 X96.307 Y103.346 E5.76866
G1 X96.581 Y102.627 E5.79425
G1 X96.928 Y101.941 E5.81982
G1 X97.344 Y101.294 E5.8454
G1 X97.825 Y100.694 E5.87098
G1 X98.117 Y100.384 E5.88515
G1 X98.234 Y100.267 E5.89065
G0 F6000 X98.517 Y100.55
G1 F1200 X99.074 Y100.05 E5.91554
G1 X99.68 Y99.613 E5.94039
G1 X100.33 Y99.242 E5.96529
G1 X101.016 Y98.943 E5.99018
G1 X101.73 Y98.719 E6.01507
G1 X102.463 Y98.572 E6.03993
G1 X103.467 Y98.5 E6.07341
G1 X116.533 Y98.5 E6.50799
G1 X117.28 Y98.54 E6.53287
G1 X118.018 Y98.659 E6.55773
G1 X118.74 Y98.857 E6.58263
G1 X119.436 Y99.13 E6.6075
G1 X120.099 Y99.477 E6.63239
G1 X120.722 Y99.892 E6.65728
G1 X121.483 Y100.55 E6.69074
G1 X121.6 Y100.667 E6.69625
G1 X122.1 Y101.224 E6.72114
G1 X122.537 Y101.83 E6.74599
G1 X122.908 Y102.48 E6.77088
G1 X123.207 Y103.166 E6.79577
G1 X123.431 Y103.88 E6.82066
G1 X123.578 Y104.613 E6.84553
G1 X123.65 Y105.617 E6.87901
G1 X123.65 Y110.497 E7.04132
G1 X123.638 Y110.906 E7.05493
G1 X123.611 Y111.367 E7.07028
G1 X123.527 Y112.114 E7.09529
G1 X123.454 Y112.55 E7.10999
G1 X123.274 Y113.34 E7.13694
G1 X123.151 Y113.765 E7.15165
G1 X122.89 Y114.508 E7.17785
G1 X122.714 Y114.931 E7.19309
G1 X122.364 Y115.652 E7.21974
G1 X122.147 Y116.041 E7.23456
G1 X121.749 Y116.673 E7.2594
G1 X121.488 Y117.042 E7.27443
G1 X120.975 Y117.684 E7.30176
G1 X120.677 Y118.015 E7.31658
G1 X120.135 Y118.554 E7.342
G1 X119.801 Y118.852 E7.35689
G1 X119.176 Y119.349 E7.38345
G1 X118.806 Y119.61 E7.39851
G1 X118.171 Y120.009 E7.42345
G1 X117.784 Y120.224 E7.43818
G1 X117.068 Y120.57 E7.46463
G1 X116.644 Y120.746 E7.47989
G1 X115.866 Y121.016 E7.50728
G1 X115.442 Y121.136 E7.52194
G1 X114.684 Y121.306 E7.54778
G1 X114.245 Y121.379 E7.56258
G1 X113.483 Y121.463 E7.58808
G1 X113.03 Y121.488 E7.60317
G1 X112.242 Y121.487 E7.62938
G1 X111.79 Y121.461 E7.64443
G1 X111.028 Y121.376 E7.66994
G1 X110.589 Y121.302 E7.68474
G1 X109.803 Y121.122 E7.71156
G1 X109.379 Y120.999 E7.72625
G1 X108.83 Y120.806 E7.7456
G1 X108.716 Y120.829 E7.74947
G1 X107.926 Y120.941 E7.77601
G1 X107.535 Y120.974 E7.78906
G1 X106.72 Y120.995 E7.81617
G1 X106.317 Y120.982 E7.82959
G1 X105.539 Y120.914 E7.85556
G1 X105.139 Y120.856 E7.869
G1 X104.319 Y120.686 E7.89686
G1 X103.941 Y120.584 E7.90988
G1 X103.225 Y120.349 E7.93494
G1 X102.85 Y120.203 E7.94833
G1 X102.112 Y119.865 E7.97533
G1 X101.761 Y119.679 E7.98854
G1 X101.084 Y119.27 E8.01485
G1 X100.751 Y119.042 E8.02827
G1 X100.116 Y118.551 E8.05497
G1 X99.812 Y118.287 E8.06836
G1 X99.231 Y117.721 E8.09534
G1 X98.97 Y117.435 E8.10821
G1 X98.469 Y116.818 E8.13465
G1 X98.226 Y116.482 E8.14844
G1 X97.798 Y115.814 E8.17483
G1 X97.606 Y115.473 E8.18784
G1 X97.255 Y114.756 E8.21439
G1 X97.1 Y114.388 E8.22768
G1 X96.826 Y113.612 E8.25505
G1 X96.714 Y113.224 E8.26848
G1 X96.536 Y112.442 E8.29515
G1 X96.471 Y112.055 E8.30821
G1 X96.387 Y111.317 E8.33291
G1 X96.363 Y110.919 E8.34617
G1 X96.35 Y110.498 E8.36018
G1 X96.35 Y105.617 E8.52252
G1 X96.39 Y104.87 E8.5474
G1 X96.509 Y104.132 E8.57227
G1 X96.707 Y103.41 E8.59717
G1 X96.98 Y102.714 E8.62203
G1 X97.327 Y102.051 E8.64692
G1 X97.742 Y101.428 E8.67182
G1 X98.4 Y100.667 E8.70528
G1 X98.517 Y100.55 E8.71078
G0 F6000 X98.8 Y100.833
G1 F1200 X99.341 Y100.349 E8.73493
G1 X99.932 Y99.926 E8.7591
G1 X100.566 Y99.572 E8.78325
G1 X101.235 Y99.289 E8.80741
G1 X101.931 Y99.081 E8.83157
G1 X102.646 Y98.951 E8.85574
G1 X103.467 Y98.9 E8.8831
G1 X116.533 Y98.9 E9.31768
G1 X117.258 Y98.94 E9.34183
G1 X117.975 Y99.059 E9.366
G1 X118.674 Y99.257 E9.39017
G1 X119.347 Y99.53 E9.41432
G1 X119.986 Y99.875 E9.43848
G1 X120.583 Y100.289 E9.46264
G1 X121.2 Y100.833 E9.49
G1 X121.317 Y100.95 E9.4955
G1 X121.801 Y101.491 E9.51965
G1 X122.224 Y102.082 E9.54382
G1 X122.578 Y102.716 E9.56797
G1 X122.861 Y103.385 E9.59213
G1 X123.069 Y104.081 E9.61629
G1 X123.199 Y104.796 E9.64046
G1 X123.25 Y105.617 E9.66782
G1 X123.25 Y110.497 E9.83013
G1 X123.239 Y110.883 E9.84297
G1 X123.212 Y111.344 E9.85833
G1 X123.132 Y112.048 E9.8819
G1 X123.059 Y112.484 E9.8966
G1 X122.89 Y113.229 E9.92201
G1 X122.767 Y113.654 E9.93673
G1 X122.521 Y114.354 E9.9614
G1 X122.345 Y114.777 E9.97664
G1 X122.015 Y115.457 E10.00178
G1 X121.798 Y115.846 E10.0166
G1 X121.422 Y116.442 E10.04003
G1 X121.161 Y116.811 E10.05507
G1 X120.678 Y117.416 E10.08082
G1 X120.38 Y117.747 E10.09563
G1 X119.869 Y118.256 E10.11962
G1 X119.535 Y118.554 E10.13451
G1 X118.945 Y119.022 E10.15955
G1 X118.575 Y119.283 E10.17461
G1 X117.976 Y119.659 E10.19814
G1 X117.589 Y119.874 E10.21286
G1 X116.914 Y120.201 E10.23781
G1 X116.49 Y120.377 E10.25308
G1 X115.757 Y120.632 E10.27889
G1 X115.333 Y120.752 E10.29355
G1 X114.619 Y120.912 E10.31788
G1 X114.18 Y120.985 E10.33268
G1 X113.461 Y121.064 E10.35674
G1 X113.008 Y121.089 E10.37183
G1 X112.265 Y121.088 E10.39654
G1 X111.813 Y121.062 E10.4116
G1 X111.095 Y120.981 E10.43563
G1 X110.656 Y120.907 E10.45044
G1 X109.914 Y120.738 E10.47575
G1 X109.49 Y120.615 E10.49044
G1 X108.858 Y120.393 E10.51272
G1 X108.638 Y120.437 E10.52018
G1 X107.892 Y120.543 E10.54524
G1 X107.501 Y120.576 E10.55829
G1 X106.733 Y120.596 E10.58384
G1 X106.33 Y120.583 E10.59725
G1 X105.596 Y120.518 E10.62176
G1 X105.196 Y120.46 E10.6352
G1 X104.424 Y120.3 E10.66143
G1 X104.046 Y120.198 E10.67445
G1 X103.37 Y119.976 E10.69811
G1 X102.995 Y119.83 E10.7115
G1 X102.3 Y119.512 E10.73692
G1 X101.949 Y119.326 E10.75013
G1 X101.31 Y118.94 E10.77496
G1 X100.977 Y118.712 E10.78838
G1 X100.378 Y118.249 E10.81357
G1 X100.074 Y117.985 E10.82696
G1 X99.527 Y117.451 E10.85238
G1 X99.266 Y117.165 E10.86526
G1 X98.793 Y116.584 E10.89018
G1 X98.55 Y116.248 E10.90397
G1 X98.147 Y115.618 E10.92884
G1 X97.955 Y115.277 E10.94186
G1 X97.624 Y114.601 E10.96689
G1 X97.469 Y114.233 E10.98018
G1 X97.21 Y113.501 E11.006
G1 X97.098 Y113.113 E11.01943
G1 X96.93 Y112.376 E11.04457
G1 X96.865 Y111.989 E11.05763
G1 X96.786 Y111.293 E11.08092
G1 X96.762 Y110.895 E11.09419
G1 X96.75 Y110.498 E11.1074
G1 X96.75 Y105.617 E11.26974
G1 X96.79 Y104.892 E11.29389
G1 X96.909 Y104.175 E11.31806
G1 X97.107 Y103.476 E11.34223
G1 X97.38 Y102.803 E11.36638
G1 X97.725 Y102.164 E11.39054
G1 X98.139 Y101.567 E11.4147
G1 X98.683 Y100.95 E11.44206
G1 X98.8 Y100.833 E11.44756
G0 F6000 X99.083 Y101.116
G1 F1200 X99.608 Y100.647 E11.47098
G1 X100.183 Y100.241 E11.49439
G1 X100.801 Y99.903 E11.51782
G1 X101.452 Y99.636 E11.54122
G1 X102.13 Y99.446 E11.56464
G1 X102.825 Y99.333 E11.58806
G1 X103.467 Y99.3 E11.60944
G1 X116.533 Y99.3 E12.04401
G1 X117.236 Y99.34 E12.06743
G1 X117.93 Y99.459 E12.09085
G1 X118.605 Y99.657 E12.11425
G1 X119.254 Y99.929 E12.13766
G1 X119.868 Y100.274 E12.16108
G1 X120.439 Y100.685 E12.18448
G1 X120.917 Y101.116 E12.20589
G1 X121.034 Y101.233 E12.21139
G1 X121.503 Y101.758 E12.2348
G1 X121.909 Y102.333 E12.25822
G1 X122.247 Y102.951 E12.28164
G1 X122.514 Y103.602 E12.30505
G1 X122.704 Y104.28 E12.32847
G1 X122.817 Y104.975 E12.35188
G1 X122.85 Y105.617 E12.37327
G1 X122.85 Y110.497 E12.53558
G1 X122.839 Y110.86 E12.54765
G1 X122.812 Y111.321 E12.56301
G1 X122.738 Y111.982 E12.58514
G1 X122.665 Y112.418 E12.59984
G1 X122.506 Y113.118 E12.62371
G1 X122.383 Y113.543 E12.63843
G1 X122.151 Y114.201 E12.66164
G1 X121.975 Y114.624 E12.67687
G1 X121.666 Y115.262 E12.70045
G1 X121.449 Y115.651 E12.71527
G1 X121.096 Y116.211 E12.73728
G1 X120.835 Y116.58 E12.75232
G1 X120.381 Y117.148 E12.7765
G1 X120.083 Y117.479 E12.79132
G1 X119.603 Y117.957 E12.81385
G1 X119.269 Y118.255 E12.82873
G1 X118.715 Y118.695 E12.85226
G1 X118.345 Y118.956 E12.86732
G1 X117.782 Y119.31 E12.88944
G1 X117.395 Y119.525 E12.90417
G1 X116.761 Y119.831 E12.92758
G1 X116.337 Y120.007 E12.94285
G1 X115.648 Y120.247 E12.96712
G1 X115.224 Y120.367 E12.98178
G1 X114.553 Y120.517 E13.00464
G1 X114.114 Y120.59 E13.01945
G1 X113.439 Y120.665 E13.04203
G1 X112.986 Y120.69 E13.05712
G1 X112.288 Y120.689 E13.08034
G1 X111.836 Y120.663 E13.0954
G1 X111.161 Y120.587 E13.11799
G1 X110.722 Y120.513 E13.1328
G1 X110.026 Y120.354 E13.15654
G1 X109.602 Y120.231 E13.17123
G1 X108.947 Y120 E13.19433
G1 X108.892 Y119.977 E13.19631
G1 X108.559 Y120.044 E13.20761
G1 X107.858 Y120.144 E13.23116
G1 X107.467 Y120.177 E13.24421
G1 X106.746 Y120.196 E13.2682
G1 X106.343 Y120.183 E13.28161
G1 X105.653 Y120.122 E13.30465
G1 X105.253 Y120.064 E13.31809
G1 X104.528 Y119.914 E13.34272
G1 X104.15 Y119.812 E13.35574
G1 X103.516 Y119.604 E13.37793
G1 X103.141 Y119.458 E13.39132
G1 X102.487 Y119.158 E13.41525
G1 X102.136 Y118.972 E13.42846
G1 X101.536 Y118.61 E13.45177
G1 X101.203 Y118.382 E13.46519
G1 X100.641 Y117.947 E13.48883
G1 X100.337 Y117.683 E13.50222
G1 X99.822 Y117.181 E13.52614
G1 X99.561 Y116.895 E13.53902
G1 X99.117 Y116.349 E13.56242
G1 X98.874 Y116.013 E13.57621
G1 X98.496 Y115.422 E13.59955
G1 X98.304 Y115.081 E13.61256
G1 X97.992 Y114.446 E13.6361
G1 X97.837 Y114.078 E13.64938
G1 X97.594 Y113.39 E13.67364
G1 X97.482 Y113.002 E13.68708
G1 X97.325 Y112.31 E13.71068
G1 X97.26 Y111.923 E13.72373
G1 X97.185 Y111.269 E13.74562
G1 X97.161 Y110.871 E13.75889
G1 X97.15 Y110.498 E13.7713
G1 X97.15 Y105.617 E13.93364
G1 X97.19 Y104.914 E13.95706
G1 X97.309 Y104.22 E13.98048
G1 X97.507 Y103.545 E14.00388
G1 X97.779 Y102.896 E14.02728
G1 X98.124 Y102.282 E14.05071
G1 X98.535 Y101.711 E14.0741
G1 X98.966 Y101.233 E14.09551
G1 X99.083 Y101.116 E14.10102
G0 F6000 X99.366 Y101.399
G1 F1200 X99.875 Y100.946 E14.12368
G1 X100.433 Y100.557 E14.1463
G1 X101.033 Y100.235 E14.16895
G1 X101.667 Y99.986 E14.19161
G1 X102.326 Y99.813 E14.21427
G1 X103 Y99.719 E14.2369
