;FLAVOR:Marlin
;TIME:680
;Filament used: 0.235387m
;Layer height: 0.2
;MINX:95.7
;MINY:97.7
;MINZ:0.2
;MAXX:124.3
;MAXY:122.287
;MAXZ:9
;Generated with Creality Slicer 4.8.2-205
M140 S60
M105
M190 S60
M104 S200
M105
M109 S200
M82 ;absolute extrusion mode

G28 ;Home

G92 E0 ;Reset Extruder
G1 Z2.0 F3000 ;Move Z Axis up
G1 X10.1 Y20 Z0.28 F5000.0 ;Move to start position
G1 X10.1 Y200.0 Z0.28 F1500.0 E15 ;Draw the first line
G1 X10.4 Y200.0 Z0.28 F5000.0 ;Move to side a little
G1 X10.4 Y20 Z0.28 F1500.0 E30 ;Draw the second line
G92 E0 ;Reset Extruder
G1 Z2.0 F3000 ;Move Z Axis up

G92 E0
G92 E0
G1 F3600 E-5
;LAYER_COUNT:45
;LAYER:0
M107
G0 F6000 X98.102 Y99.985 Z0.2
;TYPE:SKIRT
G1 F3600 E0
G1 F1200 X98.688 Y99.455 E0.02628
G1 X99.324 Y98.988 E0.05252
G1 X100.004 Y98.587 E0.07878
G1 X100.722 Y98.257 E0.10506
G1 X101.469 Y98.002 E0.13132
G1 X102.238 Y97.823 E0.15758
G1 X103.022 Y97.723 E0.18386
G1 X103.617 Y97.7 E0.20367
G1 X116.383 Y97.7 E0.62827
G1 X117.172 Y97.74 E0.65454
G1 X117.952 Y97.859 E0.68079
G1 X118.717 Y98.057 E0.70707
G1 X119.457 Y98.331 E0.73331
G1 X120.166 Y98.679 E0.75958
G1 X120.837 Y99.097 E0.78588
G1 X121.461 Y99.58 E0.81212
G1 X121.898 Y99.985 E0.83194
G1 X122.015 Y100.102 E0.83744
G1 X122.545 Y100.688 E0.86372
G1 X123.012 Y101.324 E0.88996
G1 X123.413 Y102.004 E0.91622
G1 X123.743 Y102.722 E0.9425
G1 X123.998 Y103.469 E0.96876
G1 X124.177 Y104.238 E0.99502
G1 X124.277 Y105.022 E1.0213
G1 X124.3 Y105.617 E1.04111
G1 X124.3 Y110.497 E1.20342
G1 X124.287 Y110.942 E1.21823
G1 X124.261 Y111.397 E1.23338
G1 X124.167 Y112.24 E1.2616
G1 X124.093 Y112.682 E1.2765
G1 X123.893 Y113.562 E1.30652
G1 X123.77 Y113.987 E1.32123
G1 X123.479 Y114.815 E1.35042
G1 X123.303 Y115.238 E1.36566
G1 X122.913 Y116.042 E1.39538
G1 X122.696 Y116.431 E1.4102
G1 X122.252 Y117.135 E1.43788
G1 X121.991 Y117.504 E1.45291
G1 X121.42 Y118.219 E1.48335
G1 X121.122 Y118.55 E1.49816
G1 X120.518 Y119.151 E1.5265
G1 X120.184 Y119.449 E1.54139
G1 X119.487 Y120.003 E1.571
G1 X119.117 Y120.264 E1.58606
G1 X118.409 Y120.708 E1.61386
G1 X118.022 Y120.923 E1.62858
G1 X117.224 Y121.309 E1.65807
G1 X116.8 Y121.485 E1.67333
G1 X115.934 Y121.786 E1.70383
G1 X115.51 Y121.906 E1.71848
G1 X114.665 Y122.095 E1.74728
G1 X114.226 Y122.168 E1.76209
G1 X113.377 Y122.262 E1.7905
G1 X112.924 Y122.287 E1.80559
G1 X112.046 Y122.286 E1.83479
G1 X111.594 Y122.26 E1.84985
G1 X110.745 Y122.164 E1.87826
G1 X110.306 Y122.09 E1.89307
G1 X109.43 Y121.89 E1.92296
G1 X109.006 Y121.767 E1.93764
G1 X108.702 Y121.66 E1.94836
G1 X108.507 Y121.695 E1.95495
G1 X108.089 Y121.743 E1.96894
G1 X107.179 Y121.794 E1.99926
G1 X106.781 Y121.793 E2.01249
G1 X105.911 Y121.742 E2.04148
G1 X105.502 Y121.695 E2.05517
G1 X104.603 Y121.538 E2.08553
G1 X104.204 Y121.444 E2.09916
G1 X103.301 Y121.173 E2.13052
G1 X102.923 Y121.034 E2.14391
G1 X102.112 Y120.682 E2.17332
G1 X101.738 Y120.494 E2.18724
G1 X100.96 Y120.045 E2.21712
G1 X100.631 Y119.829 E2.23021
G1 X99.896 Y119.283 E2.26066
G1 X99.578 Y119.016 E2.27447
G1 X98.906 Y118.379 E2.30527
G1 X98.632 Y118.087 E2.31859
G1 X98.064 Y117.409 E2.348
G1 X97.816 Y117.076 E2.36181
G1 X97.309 Y116.304 E2.39253
G1 X97.109 Y115.956 E2.40588
G1 X96.706 Y115.148 E2.43591
G1 X96.544 Y114.771 E2.44956
G1 X96.231 Y113.905 E2.48019
G1 X96.115 Y113.513 E2.49379
G1 X95.912 Y112.654 E2.52314
G1 X95.842 Y112.257 E2.53655
G1 X95.738 Y111.364 E2.56645
G1 X95.714 Y110.959 E2.57995
G1 X95.7 Y110.498 E2.59529
G1 X95.7 Y105.617 E2.75763
G1 X95.74 Y104.828 E2.78391
G1 X95.859 Y104.048 E2.81015
G1 X96.057 Y103.283 E2.83643
G1 X96.331 Y102.543 E2.86268
G1 X96.679 Y101.834 E2.88895
G1 X97.097 Y101.163 E2.91524
G1 X97.58 Y100.539 E2.94149
G1 X97.985 Y100.102 E2.9613
G1 X98.102 Y99.985 E2.96681
G0 F6000 X98.384 Y100.267
G1 F1200 X98.956 Y99.753 E2.99238
G1 X99.578 Y99.3 E3.01798
G1 X100.243 Y98.914 E3.04355
G1 X100.945 Y98.599 E3.06914
G1 X101.676 Y98.359 E3.09473
G1 X102.427 Y98.196 E3.12029
G1 X103.192 Y98.112 E3.14589
G1 X103.617 Y98.1 E3.16003
G1 X116.383 Y98.1 E3.58463
G1 X117.151 Y98.14 E3.61021
G1 X117.911 Y98.259 E3.63579
G1 X118.654 Y98.457 E3.66137
G1 X119.373 Y98.731 E3.68696
G1 X120.059 Y99.078 E3.71253
G1 X120.706 Y99.494 E3.73811
G1 X121.306 Y99.975 E3.76369
G1 X121.616 Y100.267 E3.77785
G1 X121.733 Y100.384 E3.78336
G1 X122.247 Y100.956 E3.80893
G1 X122.7 Y101.578 E3.83453
G1 X123.086 Y102.243 E3.8601
G1 X123.401 Y102.945 E3.88569
G1 X123.641 Y103.676 E3.91128
G1 X123.804 Y104.427 E3.93684
G1 X123.888 Y105.192 E3.96244
G1 X123.9 Y105.617 E3.97658
G1 X123.9 Y110.497 E4.13889
G1 X123.888 Y110.919 E4.15293
G1 X123.862 Y111.374 E4.16809
G1 X123.772 Y112.174 E4.19487
G1 X123.698 Y112.616 E4.20977
G1 X123.508 Y113.451 E4.23825
G1 X123.385 Y113.876 E4.25297
G1 X123.109 Y114.662 E4.28068
G1 X122.933 Y115.085 E4.29591
G1 X122.563 Y115.847 E4.32409
G1 X122.346 Y116.236 E4.3389
G1 X121.925 Y116.904 E4.36517
G1 X121.664 Y117.273 E4.3802
G1 X121.123 Y117.951 E4.40905
G1 X120.825 Y118.282 E4.42386
G1 X120.252 Y118.853 E4.45077
G1 X119.918 Y119.151 E4.46565
G1 X119.257 Y119.676 E4.49373
G1 X118.887 Y119.937 E4.50879
G1 X118.215 Y120.359 E4.53518
G1 X117.828 Y120.574 E4.54991
G1 X117.071 Y120.94 E4.57787
G1 X116.647 Y121.116 E4.59314
G1 X115.825 Y121.401 E4.62208
G1 X115.401 Y121.521 E4.63673
G1 X114.6 Y121.701 E4.66404
G1 X114.161 Y121.774 E4.67884
G1 X113.355 Y121.863 E4.70581
G1 X112.902 Y121.888 E4.7209
G1 X112.069 Y121.887 E4.74861
G1 X111.617 Y121.861 E4.76367
G1 X110.812 Y121.77 E4.79061
G1 X110.373 Y121.696 E4.80542
G1 X109.541 Y121.506 E4.8338
G1 X109.117 Y121.383 E4.84849
G1 X108.737 Y121.249 E4.86189
G1 X108.461 Y121.298 E4.87121
G1 X108.043 Y121.346 E4.88521
G1 X107.18 Y121.394 E4.91395
G1 X106.782 Y121.393 E4.92719
G1 X105.956 Y121.345 E4.95471
G1 X105.547 Y121.298 E4.9684
G1 X104.695 Y121.149 E4.99717
G1 X104.296 Y121.055 E5.01081
G1 X103.439 Y120.797 E5.04057
G1 X103.061 Y120.658 E5.05397
G1 X102.291 Y120.325 E5.08187
G1 X101.917 Y120.137 E5.09579
G1 X101.18 Y119.711 E5.12411
G1 X100.851 Y119.495 E5.1372
G1 X100.154 Y118.976 E5.1661
G1 X99.836 Y118.709 E5.17991
G1 X99.198 Y118.106 E5.20911
G1 X98.924 Y117.814 E5.22243
G1 X98.385 Y117.17 E5.25036
G1 X98.137 Y116.837 E5.26417
G1 X97.656 Y116.104 E5.29333
G1 X97.456 Y115.756 E5.30668
G1 X97.073 Y114.991 E5.33513
G1 X96.911 Y114.614 E5.34878
G1 X96.614 Y113.792 E5.37785
G1 X96.498 Y113.4 E5.39145
G1 X96.306 Y112.585 E5.4193
G1 X96.236 Y112.188 E5.4327
G1 X96.137 Y111.341 E5.46107
G1 X96.113 Y110.936 E5.47456
G1 X96.1 Y110.498 E5.48914
G1 X96.1 Y105.617 E5.65148
G1 X96.14 Y104.849 E5.67706
G1 X96.259 Y104.089 E5.70264
G1 X96.457 Y103.346 E5.72822
G1 X96.731 Y102.627 E5.75381
G1 X97.078 Y101.941 E5.77938
G1 X97.494 Y101.294 E5.80496
G1 X97.975 Y100.694 E5.83054
G1 X98.267 Y100.384 E5.8447
G1 X98.384 Y100.267 E5.85021
G0 F6000 X98.667 Y100.55
G1 F1200 X99.224 Y100.05 E5.8751
G1 X99.83 Y99.613 E5.89995
G1 X100.48 Y99.242 E5.92484
G1 X101.166 Y98.943 E5.94973
G1 X101.88 Y98.719 E5.97462
G1 X102.613 Y98.572 E5.99949
G1 X103.617 Y98.5 E6.03297
G1 X116.383 Y98.5 E6.45757
G1 X117.13 Y98.54 E6.48245
G1 X117.868 Y98.659 E6.50731
G1 X118.59 Y98.857 E6.53221
G1 X119.286 Y99.13 E6.55708
G1 X119.949 Y99.477 E6.58197
G1 X120.572 Y99.892 E6.60686
G1 X121.333 Y100.55 E6.64032
G1 X121.45 Y100.667 E6.64583
G1 X121.95 Y101.224 E6.67072
G1 X122.387 Y101.83 E6.69557
G1 X122.758 Y102.48 E6.72046
G1 X123.057 Y103.166 E6.74535
G1 X123.281 Y103.88 E6.77024
G1 X123.428 Y104.613 E6.79511
G1 X123.5 Y105.617 E6.82859
G1 X123.5 Y110.497 E6.9909
G1 X123.489 Y110.896 E7.00417
G1 X123.463 Y111.351 E7.01933
G1 X123.378 Y112.108 E7.04467
G1 X123.304 Y112.55 E7.05957
G1 X123.124 Y113.34 E7.08652
G1 X123.001 Y113.765 E7.10124
G1 X122.74 Y114.508 E7.12743
G1 X122.564 Y114.931 E7.14267
G1 X122.214 Y115.652 E7.16932
G1 X121.997 Y116.041 E7.18414
G1 X121.599 Y116.673 E7.20898
G1 X121.338 Y117.042 E7.22401
G1 X120.825 Y117.684 E7.25135
G1 X120.527 Y118.015 E7.26616
G1 X119.985 Y118.554 E7.29158
G1 X119.651 Y118.852 E7.30647
G1 X119.026 Y119.349 E7.33303
G1 X118.656 Y119.61 E7.34809
G1 X118.021 Y120.009 E7.37303
G1 X117.634 Y120.224 E7.38776
G1 X116.918 Y120.57 E7.41421
G1 X116.494 Y120.746 E7.42948
G1 X115.716 Y121.016 E7.45687
G1 X115.292 Y121.136 E7.47152
G1 X114.534 Y121.306 E7.49736
G1 X114.095 Y121.379 E7.51216
G1 X113.333 Y121.463 E7.53766
G1 X112.88 Y121.488 E7.55275
G1 X112.092 Y121.487 E7.57896
G1 X111.64 Y121.461 E7.59402
G1 X110.878 Y121.376 E7.61952
G1 X110.439 Y121.302 E7.63433
G1 X109.653 Y121.122 E7.66114
G1 X109.229 Y120.999 E7.67583
G1 X108.77 Y120.837 E7.69202
G1 X108.416 Y120.9 E7.70398
G1 X107.998 Y120.948 E7.71797
G1 X107.181 Y120.994 E7.74519
G1 X106.783 Y120.993 E7.75842
G1 X106.002 Y120.947 E7.78445
G1 X105.593 Y120.9 E7.79814
G1 X104.787 Y120.759 E7.82535
G1 X104.388 Y120.665 E7.83899
G1 X103.577 Y120.422 E7.86715
G1 X103.199 Y120.283 E7.88054
G1 X102.471 Y119.967 E7.90694
G1 X102.097 Y119.779 E7.92086
G1 X101.399 Y119.377 E7.94765
G1 X101.07 Y119.161 E7.96074
G1 X100.411 Y118.67 E7.98807
G1 X100.093 Y118.403 E8.00189
G1 X99.489 Y117.832 E8.02953
G1 X99.215 Y117.54 E8.04285
G1 X98.706 Y116.931 E8.06925
G1 X98.458 Y116.598 E8.08306
G1 X98.003 Y115.905 E8.11063
G1 X97.803 Y115.557 E8.12398
G1 X97.441 Y114.833 E8.1509
G1 X97.279 Y114.456 E8.16455
G1 X96.998 Y113.678 E8.19206
G1 X96.882 Y113.286 E8.20566
G1 X96.7 Y112.516 E8.23198
G1 X96.63 Y112.119 E8.24538
G1 X96.536 Y111.317 E8.27224
G1 X96.512 Y110.912 E8.28573
G1 X96.5 Y110.498 E8.29951
G1 X96.5 Y105.617 E8.46185
G1 X96.54 Y104.87 E8.48673
G1 X96.659 Y104.132 E8.5116
G1 X96.857 Y103.41 E8.5365
G1 X97.13 Y102.714 E8.56136
G1 X97.477 Y102.051 E8.58625
G1 X97.892 Y101.428 E8.61115
G1 X98.55 Y100.667 E8.64461
G1 X98.667 Y100.55 E8.65011
G0 F6000 X98.95 Y100.833
G1 F1200 X99.491 Y100.349 E8.67426
G1 X100.082 Y99.926 E8.69843
G1 X100.716 Y99.572 E8.72258
G1 X101.385 Y99.289 E8.74674
G1 X102.081 Y99.081 E8.7709
G1 X102.796 Y98.951 E8.79507
G1 X103.617 Y98.9 E8.82243
G1 X116.383 Y98.9 E9.24703
G1 X117.108 Y98.94 E9.27118
G1 X117.825 Y99.059 E9.29536
G1 X118.524 Y99.257 E9.31952
G1 X119.197 Y99.53 E9.34367
G1 X119.836 Y99.875 E9.36783
G1 X120.433 Y100.289 E9.39199
G1 X121.05 Y100.833 E9.41935
G1 X121.167 Y100.95 E9.42485
G1 X121.651 Y101.491 E9.449
G1 X122.074 Y102.082 E9.47317
G1 X122.428 Y102.716 E9.49732
G1 X122.711 Y103.385 E9.52148
G1 X122.919 Y104.081 E9.54564
G1 X123.049 Y104.796 E9.56981
G1 X123.1 Y105.617 E9.59717
G1 X123.1 Y110.497 E9.75948
G1 X123.089 Y110.874 E9.77203
G1 X123.063 Y111.329 E9.78718
G1 X122.983 Y112.042 E9.81105
G1 X122.909 Y112.484 E9.82595
G1 X122.74 Y113.229 E9.85136
G1 X122.617 Y113.654 E9.86608
G1 X122.371 Y114.354 E9.89075
G1 X122.195 Y114.777 E9.90599
G1 X121.865 Y115.457 E9.93113
G1 X121.648 Y115.846 E9.94595
G1 X121.272 Y116.442 E9.96939
G1 X121.011 Y116.811 E9.98442
G1 X120.528 Y117.416 E10.01017
G1 X120.23 Y117.747 E10.02498
G1 X119.719 Y118.256 E10.04897
G1 X119.385 Y118.554 E10.06386
G1 X118.795 Y119.022 E10.0889
G1 X118.425 Y119.283 E10.10396
G1 X117.826 Y119.659 E10.12749
G1 X117.439 Y119.874 E10.14221
G1 X116.764 Y120.201 E10.16716
G1 X116.34 Y120.377 E10.18243
G1 X115.607 Y120.632 E10.20824
G1 X115.183 Y120.752 E10.2229
G1 X114.469 Y120.912 E10.24723
G1 X114.03 Y120.985 E10.26203
G1 X113.311 Y121.064 E10.28609
G1 X112.858 Y121.089 E10.30118
G1 X112.115 Y121.088 E10.32589
G1 X111.663 Y121.062 E10.34095
G1 X110.945 Y120.981 E10.36499
G1 X110.506 Y120.907 E10.37979
G1 X109.764 Y120.738 E10.4051
G1 X109.34 Y120.615 E10.41979
G1 X108.803 Y120.426 E10.43872
G1 X108.37 Y120.503 E10.45335
G1 X107.952 Y120.551 E10.46734
G1 X107.182 Y120.594 E10.49299
G1 X106.784 Y120.593 E10.50623
G1 X106.048 Y120.55 E10.53075
G1 X105.639 Y120.503 E10.54445
G1 X104.879 Y120.37 E10.57011
G1 X104.48 Y120.276 E10.58374
G1 X103.715 Y120.046 E10.61031
G1 X103.337 Y119.907 E10.62371
G1 X102.651 Y119.61 E10.64857
G1 X102.277 Y119.422 E10.66249
G1 X101.619 Y119.042 E10.68776
G1 X101.29 Y118.826 E10.70085
G1 X100.668 Y118.364 E10.72662
G1 X100.35 Y118.097 E10.74043
G1 X99.781 Y117.558 E10.7665
G1 X99.507 Y117.266 E10.77982
G1 X99.027 Y116.692 E10.80471
G1 X98.779 Y116.359 E10.81852
G1 X98.35 Y115.706 E10.8445
G1 X98.15 Y115.358 E10.85785
G1 X97.808 Y114.675 E10.88326
G1 X97.646 Y114.298 E10.89691
G1 X97.381 Y113.565 E10.92283
G1 X97.265 Y113.173 E10.93643
G1 X97.094 Y112.446 E10.96127
G1 X97.024 Y112.049 E10.97468
G1 X96.936 Y111.293 E10.99999
G1 X96.912 Y110.888 E11.01348
G1 X96.9 Y110.498 E11.02646
G1 X96.9 Y105.617 E11.1888
G1 X96.94 Y104.892 E11.21295
G1 X97.059 Y104.175 E11.23713
G1 X97.257 Y103.476 E11.26129
G1 X97.53 Y102.803 E11.28545
G1 X97.875 Y102.164 E11.3096
G1 X98.289 Y101.567 E11.33376
G1 X98.833 Y100.95 E11.36112
G1 X98.95 Y100.833 E11.36663
G0 F6000 X99.233 Y101.116
G1 F1200 X99.758 Y100.647 E11.39004
G1 X100.333 Y100.241 E11.41345
G1 X100.951 Y99.903 E11.43688
G1 X101.602 Y99.636 E11.46028
G1 X102.28 Y99.446 E11.4837
G1 X102.975 Y99.333 E11.50712
G1 X103.617 Y99.3 E11.5285
G1 X116.383 Y99.3 E11.9531
G1 X117.086 Y99.34 E11.97652
G1 X117.78 Y99.459 E11.99994
G1 X118.455 Y99.657 E12.02334
G1 X119.104 Y99.929 E12.04674
G1 X119.718 Y100.274 E12.07017
G1 X120.289 Y100.685 E12.09357
G1 X120.767 Y101.116 E12.11497
G1 X120.884 Y101.233 E12.12048
G1 X121.353 Y101.758 E12.14389
G1 X121.759 Y102.333 E12.1673
G1 X122.097 Y102.951 E12.19073
G1 X122.364 Y103.602 E12.21413
G1 X122.554 Y104.28 E12.23755
G1 X122.667 Y104.975 E12.26097
G1 X122.7 Y105.617 E12.28235
G1 X122.7 Y110.497 E12.44466
G1 X122.69 Y110.851 E12.45644
G1 X122.664 Y111.306 E12.4716
G1 X122.589 Y111.976 E12.49402
G1 X122.515 Y112.418 E12.50893
G1 X122.356 Y113.118 E12.5328
G1 X122.233 Y113.543 E12.54752
G1 X122.001 Y114.201 E12.57073
G1 X121.825 Y114.624 E12.58596
G1 X121.516 Y115.262 E12.60954
G1 X121.299 Y115.651 E12.62436
G1 X120.946 Y116.211 E12.64637
G1 X120.685 Y116.58 E12.66141
G1 X120.231 Y117.148 E12.68559
G1 X119.933 Y117.479 E12.7004
G1 X119.453 Y117.957 E12.72294
G1 X119.119 Y118.255 E12.73782
G1 X118.565 Y118.695 E12.76135
G1 X118.195 Y118.956 E12.77641
G1 X117.632 Y119.31 E12.79853
G1 X117.245 Y119.525 E12.81326
G1 X116.611 Y119.831 E12.83667
G1 X116.187 Y120.007 E12.85194
G1 X115.498 Y120.247 E12.87621
G1 X115.074 Y120.367 E12.89086
G1 X114.403 Y120.517 E12.91373
G1 X113.964 Y120.59 E12.92853
G1 X113.289 Y120.665 E12.95112
G1 X112.836 Y120.69 E12.96621
G1 X112.138 Y120.689 E12.98943
G1 X111.686 Y120.663 E13.00449
G1 X111.011 Y120.587 E13.02708
G1 X110.572 Y120.513 E13.04189
G1 X109.876 Y120.354 E13.06563
G1 X109.452 Y120.231 E13.08032
G1 X108.839 Y120.015 E13.10193
G1 X108.324 Y120.106 E13.11933
G1 X107.906 Y120.154 E13.13332
G1 X107.183 Y120.194 E13.15741
G1 X106.785 Y120.193 E13.17064
G1 X106.093 Y120.152 E13.1937
G1 X105.684 Y120.105 E13.20739
G1 X104.97 Y119.981 E13.2315
G1 X104.571 Y119.887 E13.24513
G1 X103.853 Y119.671 E13.27007
G1 X103.475 Y119.532 E13.28346
G1 X102.83 Y119.253 E13.30684
G1 X102.456 Y119.065 E13.32076
G1 X101.838 Y118.708 E13.3445
G1 X101.509 Y118.492 E13.35759
G1 X100.925 Y118.057 E13.38181
G1 X100.607 Y117.79 E13.39562
G1 X100.073 Y117.284 E13.42009
G1 X99.799 Y116.992 E13.4334
G1 X99.347 Y116.453 E13.4568
G1 X99.099 Y116.12 E13.47061
G1 X98.697 Y115.506 E13.49502
G1 X98.497 Y115.158 E13.50837
G1 X98.176 Y114.517 E13.53221
G1 X98.014 Y114.14 E13.54586
G1 X97.765 Y113.451 E13.57023
G1 X97.649 Y113.059 E13.58382
G1 X97.488 Y112.377 E13.60713
G1 X97.418 Y111.98 E13.62054
G1 X97.335 Y111.27 E13.64431
G1 X97.311 Y110.865 E13.65781
G1 X97.3 Y110.498 E13.67002
G1 X97.3 Y105.617 E13.83236
G1 X97.34 Y104.914 E13.85578
G1 X97.459 Y104.22 E13.8792
G1 X97.657 Y103.545 E13.9026
G1 X97.929 Y102.896 E13.926
G1 X98.274 Y102.282 E13.94943
G1 X98.685 Y101.711 E13.97283
G1 X99.116 Y101.233 E13.99424
G1 X99.233 Y101.116 E13.99974
G0 F6000 X99.516 Y101.399
G1 F1200 X100.025 Y100.946 E14.0224
G1 X100.583 Y100.557 E14.04503
G1 X101.183 Y100.235 E14.06767
G1 X101.817 Y99.986 E14.09033
G1 X102.476 Y99.813 E14.11299
G1 X103.15 Y99.719 E14.13562
G1 X103.617 Y99.7 E14.15117
G1 X116.383 Y99.7 E14.57577
G1 X117.063 Y99.74 E14.59842
G1 X117.733 Y99.859 E14.62106
